usr/share/icons/biglinux-icons-material/scalable/apps/gnome-nibbles.svg

<svg xmlns="http://www.w3.org/2000/svg" width="24" height="24" viewBox="0 0 6.35 6.35"><path d="M3.175.265C.529.265.265 1.587.265 3.175c0 2.117.793 2.91 2.91 2.91s2.91-.793 2.91-2.91c0-1.588-.264-2.91-2.91-2.91z" style="font-variation-settings:normal;display:inline;vector-effect:none;fill:#f88c16;fill-opacity:1;stroke-width:.295341;stroke-linecap:butt;stroke-linejoin:miter;stroke-miterlimit:4;stroke-dasharray:none;stroke-dashoffset:0;stroke-opacity:1;-inkscape-stroke:none;stop-color:#000"/><path d="M3.175.523C.764.523.523 1.728.523 3.175c0 1.929.723 2.652 2.652 2.652 1.929 0 2.652-.723 2.652-2.652 0-1.447-.24-2.652-2.652-2.652z" style="font-variation-settings:normal;display:inline;vector-effect:none;fill:#f99d39;fill-opacity:1;stroke-width:.269163;stroke-linecap:butt;stroke-linejoin:miter;stroke-miterlimit:4;stroke-dasharray:none;stroke-dashoffset:0;stroke-opacity:1;-inkscape-stroke:none;stop-color:#000"/><g style="stroke-width:2.33531"><path fill-rule="evenodd" d="M6.842 4.446a1.918 1.918 0 0 0-.525.063c-.462.12-.904.4-1.22.78-.313.378-.501.86-.439 1.371.065.874.475 2.312.986 3.542.256.616.537 1.178.817 1.59.14.207.279.376.419.496.137.118.278.191.423.19a.856.856 0 0 0 .666-.193c.193-.151.358-.368.513-.607.3-.464.57-1.053.877-1.402.03.035.07.146.12.235.096.179.22.44.38.704.16.266.357.52.605.73.247.208.548.34.904.341.214.016.43.001.603-.086.175-.088.308-.229.316-.446v-.002a.426.426 0 0 0-.214-.37c-.121-.077-.269-.127-.425-.208-.31-.162-.664-.426-.876-1.19-.168-.608-.39-1.062-.624-1.368-.234-.305-.423-.577-.722-.543-.52.06-.766.806-1.014 1.202-.152.244-.295.487-.419.68-.1.157-.175.244-.234.304-.192-.206-.306-.427-.286-.69.024-.293.192-.63.347-.986.31-.713.705-1.516.624-2.309-.06-.58-.363-1.23-.789-1.564a1.403 1.403 0 0 0-.64-.25 1.524 1.524 0 0 0-.173-.014ZM6.8 5.43a1.3 1.3 0 0 1 .638.575 2.333 2.333 0 0 0-.64-.27 1.53 1.53 0 0 0-.53.307A1 1 0 0 1 6.8 5.43Zm-1.166.459c.244.004.48.07.633.15a2.467 2.467 0 0 0-.693.109c-.11.135-.205.3-.255.506a.837.837 0 0 1 .07-.746c.081-.015.164-.02.245-.019Zm1.119.143c.26-.025.487.31.504.745.008.187-.025.33-.085.471a2.595 2.595 0 0 0-.706.113c-.014-.022-.03-.042-.042-.066a.757.757 0 0 1-.012.083 2.088 2.088 0 0 0-.592.335.987.987 0 0 1-.225-.548c-.046-.398.102-.805.33-.828.149-.015.294.176.39.375.03-.366.21-.658.438-.68Zm.685 1.386c-.007.628-.63 1.38-1.01 1.377-.532-.005-.714-.367-.83-.617.602-.143 1.367-.482 1.84-.76Z" style="fill:#fff;stroke-width:2.33531" transform="matrix(.4282 0 0 .4282 -.45 -.448)"/><path d="M6.217 7.055a.168.23 0 0 1-.335 0 .168.23 0 1 1 .335 0zm.719-.172a.168.23 0 0 1-.335 0 .168.23 0 1 1 .335 0z" style="fill:#fff;stroke-width:2.33531" transform="matrix(.4282 0 0 .4282 -.45 -.448)"/><path d="M7.38 7.755c-.11.145-.343.255-.73.425.441-.093.433-.003.447.132a1.87 1.87 0 0 0 .283-.557Zm-.93.502c-.41.12-.59.148-.762.097a.816.816 0 0 0 .388.37c-.067-.135-.067-.258.373-.467Z" opacity=".5" style="fill:#fff;stroke-width:2.33531" transform="matrix(.4282 0 0 .4282 -.45 -.448)"/></g></svg>

<?xml version="1.0" encoding="UTF-8" standalone="no"?>
<svg
   width="24"
   height="24"
   viewBox="0 0 6.349875 6.349875"
   version="1.1"
   id="svg4"
   sodipodi:docname="org.gnome.Nibbles.svg"
   inkscape:version="1.3 (0e150ed6c4, 2023-07-21)"
   xmlns:inkscape="http://www.inkscape.org/namespaces/inkscape"
   xmlns:sodipodi="http://sodipodi.sourceforge.net/DTD/sodipodi-0.dtd"
   xmlns="http://www.w3.org/2000/svg"
   xmlns:svg="http://www.w3.org/2000/svg"
   xmlns:sketch="http://www.bohemiancoding.com/sketch/ns">
  <defs
     id="defs4" />
  <sodipodi:namedview
     id="namedview4"
     pagecolor="#ffffff"
     bordercolor="#000000"
     borderopacity="0.25"
     inkscape:showpageshadow="2"
     inkscape:pageopacity="0.0"
     inkscape:pagecheckerboard="0"
     inkscape:deskcolor="#d1d1d1"
     inkscape:zoom="4.4801844"
     inkscape:cx="-34.485188"
     inkscape:cy="-3.2364739"
     inkscape:window-width="2560"
     inkscape:window-height="998"
     inkscape:window-x="0"
     inkscape:window-y="0"
     inkscape:window-maximized="1"
     inkscape:current-layer="svg4" />
  <path
     d="m 3.1749374,0.26457811 c -2.64578119,0 -2.91035929,1.32289059 -2.91035929,2.91035929 0,2.116625 0.79373439,2.9103591 2.91035929,2.9103591 2.116625,0 2.9103591,-0.7937341 2.9103591,-2.9103591 0,-1.5874687 -0.2645779,-2.91035929 -2.9103591,-2.91035929 z"
     sketch:type="MSShapeGroup"
     id="path6"
     style="font-variation-settings:normal;display:inline;vector-effect:none;fill:#f88c16;fill-opacity:1;stroke-width:0.295341;stroke-linecap:butt;stroke-linejoin:miter;stroke-miterlimit:4;stroke-dasharray:none;stroke-dashoffset:0;stroke-opacity:1;-inkscape-stroke:none;stop-color:#000000"
     sodipodi:nodetypes="sssss"
     inkscape:label="Shape" />
  <path
     d="m 3.1749374,0.52254189 c -2.41126864,0 -2.65239551,1.20563431 -2.65239551,2.65239551 0,1.929015 0.72338061,2.6523954 2.65239551,2.6523954 1.929015,0 2.6523954,-0.7233804 2.6523954,-2.6523954 0,-1.4467612 -0.2411267,-2.65239551 -2.6523954,-2.65239551 z"
     sketch:type="MSShapeGroup"
     id="path45683"
     style="font-variation-settings:normal;display:inline;vector-effect:none;fill:#f99d39;fill-opacity:1;stroke-width:0.269163;stroke-linecap:butt;stroke-linejoin:miter;stroke-miterlimit:4;stroke-dasharray:none;stroke-dashoffset:0;stroke-opacity:1;-inkscape-stroke:none;stop-color:#000000"
     sodipodi:nodetypes="sssss"
     inkscape:label="Shape" />
  <g
     id="g8"
     transform="matrix(0.42820783,0,0,0.42820783,-0.45053073,-0.44848634)"
     style="stroke-width:2.33531">
    <path
       d="M 6.842,4.446 A 1.918,1.918 0 0 0 6.317,4.509 c -0.462,0.12 -0.904,0.4 -1.22,0.78 -0.313,0.378 -0.501,0.86 -0.439,1.371 0.065,0.874 0.475,2.312 0.986,3.542 0.256,0.616 0.537,1.178 0.817,1.59 0.14,0.207 0.279,0.376 0.419,0.496 0.137,0.118 0.278,0.191 0.423,0.19 a 0.856,0.856 0 0 0 0.666,-0.193 c 0.193,-0.151 0.358,-0.368 0.513,-0.607 0.3,-0.464 0.57,-1.053 0.877,-1.402 0.03,0.035 0.07,0.146 0.12,0.235 0.096,0.179 0.22,0.44 0.38,0.704 0.16,0.266 0.357,0.52 0.605,0.73 0.247,0.208 0.548,0.34 0.904,0.341 0.214,0.016 0.43,0.001 0.603,-0.086 0.175,-0.088 0.308,-0.229 0.316,-0.446 v -0.002 a 0.426,0.426 0 0 0 -0.214,-0.37 C 11.952,11.305 11.804,11.255 11.648,11.174 11.338,11.012 10.984,10.748 10.772,9.984 10.604,9.376 10.382,8.922 10.148,8.616 9.914,8.311 9.725,8.039 9.426,8.073 8.906,8.133 8.66,8.879 8.412,9.275 8.26,9.519 8.117,9.762 7.993,9.955 7.893,10.112 7.818,10.199 7.759,10.259 7.567,10.053 7.453,9.832 7.473,9.569 7.497,9.276 7.665,8.939 7.82,8.583 8.13,7.87 8.525,7.067 8.444,6.274 8.384,5.694 8.081,5.044 7.655,4.71 A 1.403,1.403 0 0 0 7.015,4.46 1.524,1.524 0 0 0 6.842,4.446 Z M 6.8,5.43 A 1.3,1.3 0 0 1 7.438,6.005 2.333,2.333 0 0 0 6.798,5.735 1.53,1.53 0 0 0 6.268,6.042 1,1 0 0 1 6.8,5.43 Z M 5.634,5.889 c 0.244,0.004 0.48,0.07 0.633,0.15 C 6,6.046 5.751,6.088 5.574,6.148 5.464,6.283 5.369,6.448 5.319,6.654 A 0.837,0.837 0 0 1 5.389,5.908 C 5.47,5.893 5.553,5.888 5.634,5.889 Z M 6.753,6.032 C 7.013,6.007 7.24,6.342 7.257,6.777 7.265,6.964 7.232,7.107 7.172,7.248 A 2.595,2.595 0 0 0 6.466,7.361 C 6.452,7.339 6.436,7.319 6.424,7.295 A 0.757,0.757 0 0 1 6.412,7.378 2.088,2.088 0 0 0 5.82,7.713 0.987,0.987 0 0 1 5.595,7.165 C 5.549,6.767 5.697,6.36 5.925,6.337 6.074,6.322 6.219,6.513 6.315,6.712 6.345,6.346 6.525,6.054 6.753,6.032 Z M 7.438,7.418 C 7.431,8.046 6.808,8.798 6.428,8.795 5.896,8.79 5.714,8.428 5.598,8.178 6.2,8.035 6.965,7.696 7.438,7.418 Z"
       fill-rule="evenodd"
       id="path5"
       style="fill:#ffffff;stroke-width:2.33531" />
    <path
       d="m 6.217,7.055 a 0.168,0.23 0 0 1 -0.335,0 0.168,0.23 0 1 1 0.335,0 z M 6.936,6.883 a 0.168,0.23 0 0 1 -0.335,0 0.168,0.23 0 1 1 0.335,0 z"
       id="path7"
       style="fill:#ffffff;stroke-width:2.33531" />
    <path
       d="M 7.38,7.755 C 7.27,7.9 7.037,8.01 6.65,8.18 7.091,8.087 7.083,8.177 7.097,8.312 A 1.87,1.87 0 0 0 7.38,7.755 Z M 6.45,8.257 C 6.04,8.377 5.86,8.405 5.688,8.354 a 0.816,0.816 0 0 0 0.388,0.37 C 6.009,8.589 6.009,8.466 6.449,8.257 Z"
       opacity="0.5"
       id="path8"
       style="fill:#ffffff;stroke-width:2.33531" />
  </g>
</svg>
